!!!OTL: 512d. Liebessehnsucht.
!!!ODT: 1800
!!!ARE: Europa, Mitteleuropa, Deutschland, Schlesien, Neisse, Waltorf
!!!SCT: E0512
!!!TXL: @@DE
!!!YEM: Copyright 1995, estate of Helmut Schaffrath.
**kern	**text
*ICvox	*
*M3/8	*
*k[f#]	*
*G:	*
=1	=1
!LO:TX:a:t=Mäßig.	!
!LO:TX:a:t=Mündlich aus Waltdorf bei Neiße (Schleſien).	!
{8dd	1._Wenn
16dd	ich
16b	ein
16g	kleins
16b/	Wald-
=2	=2
8b/	-vög-
16aL	-lein
16gJ	.
8a}	wär,
=3	=3
{8a	wöllt_ich
16f#L	flie-
16dJ	.
8cc	-gen
=4	=4
8cc	ü-
16b	-ber
16a	das
8b}	Meer,
=5	=5
{16dd	ſchön-
16dd	-ſter
16eeL	Schatʒ
16ddJ	.
8cc	ʒu
=6	=6
8b^L	dir;
8aJ	.
8r}	.
=7	=7
{16a	a-
16b/	-ber
8cc	du
8a	biſt
=8	=8
16b	weit
16ee	von
8.ddL	mir,
16bJ}	.
=9	=9
{16a	a-
16b/	-ber
8cc	du
8a	biſt
=10	=10
16b	weit
16ee	von
8.ddL	mir
16bJ}	.
=11	=11
{8b/	und
8.a	ich
16g	von
=12	=12
4g	dir.
8r}	.
==	==
!!!AGN: Liebes - Lied
!!!ONB: ESAC (Essen Associative Code) Database: ERK1
!!!AMT: simple triple
!!!AIN: vox
!!!EED: Helmut Schaffrath
!!!EEV: 1.0
!!!GTL: Liebeslieder [Neuere (aus dem 18. bis 19. Jahrh.) - Liebeslust]
!!!URL-scan: https://rosdok.uni-rostock.de/mcrviewer/recordIdentifier/rosdok_ppn745177662/iview2/phys_0338.iview2?x=-250.1417780126858&y=2180.0548397980165&scale=0.5392104374602399&rotation=0&layout=singlePageLayout
!!!ENC: Anna Maria Matuszewska
!!!EEV: 2024/10/12
*-	*-
